icons/svg/braces-variable.svg

<svg width="24" height="24" viewBox="0 0 24 24" fill="none" xmlns="http://www.w3.org/2000/svg">
<path d="M7 20.25C5.89543 20.25 5 19.3546 5 18.25V15.9069C5 14.846 4.57857 13.8286 3.82843 13.0784L2.75 12L3.82843 10.9216C4.57857 10.1714 5 9.15401 5 8.09315V5.75C5 4.64543 5.89543 3.75 7 3.75" stroke="currentColor" stroke-width="1.5" stroke-linecap="round" stroke-linejoin="round"/>
<path d="M17 20.25C18.1046 20.25 19 19.3546 19 18.25V15.9069C19 14.846 19.4214 13.8286 20.1716 13.0784L21.25 12L20.1716 10.9216C19.4214 10.1714 19 9.15401 19 8.09315V5.75C19 4.64543 18.1046 3.75 17 3.75" stroke="currentColor" stroke-width="1.5" stroke-linecap="round" stroke-linejoin="round"/>
<path d="M9 8.14285L15 15.8571M15 8.14285L9 15.8571" stroke="currentColor" stroke-width="1.5" stroke-linecap="round" stroke-linejoin="round"/>
</svg>

<svg xmlns="http://www.w3.org/2000/svg" width="24" height="24" fill="none" viewBox="0 0 24 24"><path stroke="currentColor" stroke-linecap="round" stroke-linejoin="round" stroke-width="1.5" d="M7 20.25a2 2 0 0 1-2-2v-2.343a4 4 0 0 0-1.172-2.829L2.75 12l1.078-1.078A4 4 0 0 0 5 8.093V5.75a2 2 0 0 1 2-2m10 16.5a2 2 0 0 0 2-2v-2.343a4 4 0 0 1 1.172-2.829L21.25 12l-1.078-1.078A4 4 0 0 1 19 8.093V5.75a2 2 0 0 0-2-2M9 8.143l6 7.714m0-7.714-6 7.714"/></svg>
